src/assets/icons/home_icon.svg

<svg fill="none" height="24" viewBox="0 0 24 24" width="24" xmlns="http://www.w3.org/2000/svg"><path d="m11.527 4.16944c.2762-.22598.6739-.22585.9502 0l9.252 7.56936c.2453.2007.338.5344.2314.833-.1066.2984-.3892.4979-.7061.498h-1.8388v6.8194c0 .4142-.3358.75-.75.75h-4.4424c-.4141-.0002-.75-.3359-.75-.75v-4.8272h-2.9424v4.8272c0 .4141-.3359.7498-.74999.75h-4.44238c-.41406-.0002-.75-.3359-.75-.75v-6.8194h-1.83887c-.31681-.0001-.59947-.1997-.70605-.498-.10645-.2985-.01374-.6323.23144-.833zm-6.67675 7.40036h.48828c.41399.0003.74996.336.75.75v6.8194h2.94238v-4.8272c.00005-.4141.33597-.7498.75-.75h4.44239c.4142 0 .75.3359.75.75v4.8272h2.9424v-6.8194c0-.414.336-.7497.75-.75h.4873l-7.1514-5.85154z" fill="#000"/></svg>

<svg width="24" height="24" viewBox="0 0 24 24" fill="none" xmlns="http://www.w3.org/2000/svg">
<path d="M11.527 4.16944C11.8032 3.94346 12.2009 3.94359 12.4772 4.16944L21.7292 11.7388C21.9745 11.9395 22.0672 12.2732 21.9606 12.5718C21.854 12.8702 21.5714 13.0697 21.2545 13.0698H19.4157V19.8892C19.4157 20.3034 19.0799 20.6392 18.6657 20.6392H14.2233C13.8092 20.639 13.4733 20.3033 13.4733 19.8892V15.062H10.5309V19.8892C10.5309 20.3033 10.195 20.639 9.78091 20.6392H5.33853C4.92447 20.639 4.58853 20.3033 4.58853 19.8892V13.0698H2.74966C2.43285 13.0697 2.15019 12.8701 2.04361 12.5718C1.93716 12.2733 2.02987 11.9395 2.27505 11.7388L11.527 4.16944ZM4.85025 11.5698H5.33853C5.75252 11.5701 6.08849 11.9058 6.08853 12.3198V19.1392H9.03091V14.312C9.03096 13.8979 9.36688 13.5622 9.78091 13.562H14.2233C14.6375 13.562 14.9733 13.8979 14.9733 14.312V19.1392H17.9157V12.3198C17.9157 11.9058 18.2517 11.5701 18.6657 11.5698H19.153L12.0016 5.71826L4.85025 11.5698Z" fill="black"/>
</svg>
